Dominus_Funeral/22/mimes/application-x-glade.svg

<svg xmlns="http://www.w3.org/2000/svg" width="24" height="24"><path style="line-height:normal;text-indent:0;text-align:start;text-decoration-line:none;text-transform:none;marker:none" d="M5.32.54v22.92h13.36l-.74-1.29-.67.4-.13-.23.66-.4-.38-.66-.66.38-.13-.21.66-.39-.39-.67-1.34.77-.12-.22 1.33-.77-.39-.68-.67.39-.13-.22.67-.39-.4-.66-.66.38-.13-.22.67-.38-.39-.67-1.33.78-.13-.22 1.33-.78-.39-.67-.66.38-.13-.22.66-.39-.38-.66-.67.38-.13-.22.66-.38-.39-.68-1.33.78-.13-.22 1.33-.78-.39-.66-.66.38-.13-.22.66-.39-.39-.67-.66.39-.13-.22.66-.38-.39-.67-1.33.77-.13-.22 1.34-.78-.46-.77.07.1-.67.39-.13-.22.66-.4-.39-.66-.66.39-.13-.22.66-.39-.38-.67-1.34.78-.13-.22 1.33-.79-.38-.66-.67.39-.13-.22.66-.4-.38-.66-.68.38-.12-.21.67-.39-.4-.67-1.33.77-.13-.21 1.34-.78-.4-.68-.66.4-.13-.22.66-.4-.38-.66-.67.38-.13-.21.67-.39-.4-.67-1.33.78-.12-.23 1.33-.77-.52-.9.12.22-.66.4-.13-.22.67-.39L5.32.53zm2.1 3.6l.12.2zm.52.89l.13.22-.13-.23zm1.04 1.78zm0 0l.13.22zm.52.9l.13.21-.13-.23zm.51.88l.1.16zm.52.88l.04.08-.03-.08zm.04.08l.1.15zm.48.82l.13.22-.12-.22zm.53.89l.07.12zm.52.9l.12.21zm.51.89v-.01zm.66 1.1l-.13-.21.12.22zm.38.67l.13.22-.12-.22zm.52.89zm0 0l.14.23zm.65 1.12l-.13-.23.13.22zm.4.67l.12.21zm2.58 4.45l.14.21zM6.38 2.35l.12.23-.66.38-.13-.22zM7.76 12l4.77 8.2H7.76z" fill="#1a1a1a"/></svg>

<?xml version="1.0" encoding="UTF-8" standalone="no"?>
<svg
   xmlns:dc="http://purl.org/dc/elements/1.1/"
   xmlns:cc="http://creativecommons.org/ns#"
   xmlns:rdf="http://www.w3.org/1999/02/22-rdf-syntax-ns#"
   xmlns:svg="http://www.w3.org/2000/svg"
   xmlns="http://www.w3.org/2000/svg"
   xmlns:sodipodi="http://sodipodi.sourceforge.net/DTD/sodipodi-0.dtd"
   xmlns:inkscape="http://www.inkscape.org/namespaces/inkscape"
   width="24"
   height="24"
   version="1.1"
   id="svg4"
   sodipodi:docname="application-x-glade.svg"
   inkscape:version="0.92.4 (5da689c313, 2019-01-14)">
  <metadata
     id="metadata10">
    <rdf:RDF>
      <cc:Work
         rdf:about="">
        <dc:format>image/svg+xml</dc:format>
        <dc:type
           rdf:resource="http://purl.org/dc/dcmitype/StillImage" />
        <dc:title></dc:title>
      </cc:Work>
    </rdf:RDF>
  </metadata>
  <defs
     id="defs8" />
  <sodipodi:namedview
     pagecolor="#ffffff"
     bordercolor="#666666"
     borderopacity="1"
     objecttolerance="10"
     gridtolerance="10"
     guidetolerance="10"
     inkscape:pageopacity="0"
     inkscape:pageshadow="2"
     inkscape:window-width="1112"
     inkscape:window-height="480"
     id="namedview6"
     showgrid="false"
     inkscape:zoom="9.8333333"
     inkscape:cx="1.0677966"
     inkscape:cy="12"
     inkscape:window-x="0"
     inkscape:window-y="25"
     inkscape:window-maximized="0"
     inkscape:current-layer="svg4" />
  <path
     style="line-height:normal;text-indent:0;text-align:start;text-decoration:none;text-decoration-line:none;text-transform:none;fill:#1a1a1a;marker:none"
     d="m 5.32,0.54 v 22.92 h 13.36 l -0.74,-1.29 -0.67,0.4 -0.13,-0.23 0.66,-0.4 -0.38,-0.66 -0.66,0.38 -0.13,-0.21 0.66,-0.39 -0.39,-0.67 -1.34,0.77 -0.12,-0.22 1.33,-0.77 -0.39,-0.68 -0.67,0.39 -0.13,-0.22 0.67,-0.39 -0.4,-0.66 -0.66,0.38 -0.13,-0.22 0.67,-0.38 -0.39,-0.67 -1.33,0.78 -0.13,-0.22 1.33,-0.78 -0.39,-0.67 -0.66,0.38 -0.13,-0.22 0.66,-0.39 -0.38,-0.66 -0.67,0.38 -0.13,-0.22 0.66,-0.38 -0.39,-0.68 -1.33,0.78 -0.13,-0.22 1.33,-0.78 -0.39,-0.66 -0.66,0.38 -0.13,-0.22 0.66,-0.39 -0.39,-0.67 -0.66,0.39 -0.13,-0.22 0.66,-0.38 -0.39,-0.67 -1.33,0.77 -0.13,-0.22 1.34,-0.78 -0.46,-0.77 0.07,0.1 -0.67,0.39 -0.13,-0.22 0.66,-0.4 -0.39,-0.66 -0.66,0.39 -0.13,-0.22 0.66,-0.39 L 10.67,9.7 9.33,10.48 9.2,10.26 10.53,9.47 10.15,8.81 9.48,9.2 9.35,8.98 10.01,8.58 9.63,7.92 8.95,8.3 8.83,8.09 9.5,7.7 9.1,7.03 7.77,7.8 7.64,7.59 8.98,6.81 8.58,6.13 7.92,6.53 7.79,6.31 8.45,5.91 8.07,5.25 7.4,5.63 7.27,5.42 7.94,5.03 7.54,4.36 6.21,5.14 6.09,4.91 7.42,4.14 6.9,3.24 7.02,3.46 6.36,3.86 6.23,3.64 6.9,3.25 5.32,0.53 Z m 2.1,3.6 0.12,0.2 z M 7.94,5.03 8.07,5.25 7.94,5.02 Z m 1.04,1.78 z m 0,0 0.13,0.22 z M 9.5,7.71 9.63,7.92 9.5,7.69 Z m 0.51,0.88 0.1,0.16 z m 0.52,0.88 0.04,0.08 -0.03,-0.08 z m 0.04,0.08 0.1,0.15 z m 0.48,0.82 0.13,0.22 -0.12,-0.22 z m 0.53,0.89 0.07,0.12 z m 0.52,0.9 0.12,0.21 z m 0.51,0.89 v -0.01 z m 0.66,1.1 -0.13,-0.21 0.12,0.22 z m 0.38,0.67 0.13,0.22 -0.12,-0.22 z m 0.52,0.89 z m 0,0 0.14,0.23 z m 0.65,1.12 -0.13,-0.23 0.13,0.22 z m 0.4,0.67 0.12,0.21 z m 2.58,4.45 0.14,0.21 z M 6.38,2.35 6.5,2.58 5.84,2.96 5.71,2.74 Z M 7.76,12 12.53,20.2 H 7.76 Z"
     id="path2"
     inkscape:connector-curvature="0" />
</svg>
